symbols/web/sentiment_satisfied/materialsymbolsrounded/sentiment_satisfied_wght200gradN25fill1_40px.svg

<svg xmlns="http://www.w3.org/2000/svg" height="40" width="40"><path d="M25.542 17.5q.75 0 1.27-.479.521-.479.521-1.271 0-.75-.521-1.25-.52-.5-1.229-.5-.791 0-1.291.5-.5.5-.5 1.25t.5 1.25q.5.5 1.25.5Zm-11.125 0q.791 0 1.291-.479.5-.479.5-1.271 0-.75-.5-1.25t-1.25-.5q-.75 0-1.27.5-.521.5-.521 1.25t.521 1.25q.52.5 1.229.5ZM20 28.083q1.917 0 3.729-.916 1.813-.917 3.063-2.834.166-.291 0-.604-.167-.312-.542-.312-.125 0-.292.062-.166.063-.208.188-1 1.458-2.458 2.291-1.459.834-3.292.834-1.792 0-3.271-.834-1.479-.833-2.437-2.25-.042-.166-.188-.229-.146-.062-.312-.062-.417 0-.584.312-.166.313.042.646 1.208 1.875 3.021 2.792 1.812.916 3.729.916Zm0 6.792q-3.083 0-5.792-1.167-2.708-1.166-4.729-3.187t-3.187-4.729Q5.125 23.083 5.125 20q0-3.083 1.167-5.812 1.166-2.73 3.187-4.73 2.021-2 4.729-3.166Q16.917 5.125 20 5.125q3.083 0 5.812 1.167 2.73 1.166 4.73 3.187 2 2.021 3.166 4.729 1.167 2.709 1.167 5.792 0 3.083-1.167 5.792-1.166 2.708-3.187 4.729t-4.729 3.187Q23.083 34.875 20 34.875Z"/></svg>

<svg xmlns="http://www.w3.org/2000/svg" height="40" width="40"><path d="M25.542 17.5Q26.292 17.5 26.812 17.021Q27.333 16.542 27.333 15.75Q27.333 15 26.812 14.5Q26.292 14 25.583 14Q24.792 14 24.292 14.5Q23.792 15 23.792 15.75Q23.792 16.5 24.292 17Q24.792 17.5 25.542 17.5ZM14.417 17.5Q15.208 17.5 15.708 17.021Q16.208 16.542 16.208 15.75Q16.208 15 15.708 14.5Q15.208 14 14.458 14Q13.708 14 13.188 14.5Q12.667 15 12.667 15.75Q12.667 16.5 13.188 17Q13.708 17.5 14.417 17.5ZM20 28.083Q21.917 28.083 23.729 27.167Q25.542 26.25 26.792 24.333Q26.958 24.042 26.792 23.729Q26.625 23.417 26.25 23.417Q26.125 23.417 25.958 23.479Q25.792 23.542 25.75 23.667Q24.75 25.125 23.292 25.958Q21.833 26.792 20 26.792Q18.208 26.792 16.729 25.958Q15.25 25.125 14.292 23.708Q14.25 23.542 14.104 23.479Q13.958 23.417 13.792 23.417Q13.375 23.417 13.208 23.729Q13.042 24.042 13.25 24.375Q14.458 26.25 16.271 27.167Q18.083 28.083 20 28.083ZM20 34.875Q16.917 34.875 14.208 33.708Q11.5 32.542 9.479 30.521Q7.458 28.5 6.292 25.792Q5.125 23.083 5.125 20Q5.125 16.917 6.292 14.188Q7.458 11.458 9.479 9.458Q11.5 7.458 14.208 6.292Q16.917 5.125 20 5.125Q23.083 5.125 25.812 6.292Q28.542 7.458 30.542 9.479Q32.542 11.5 33.708 14.208Q34.875 16.917 34.875 20Q34.875 23.083 33.708 25.792Q32.542 28.5 30.521 30.521Q28.5 32.542 25.792 33.708Q23.083 34.875 20 34.875Z"/></svg>
